X:120
T:Holly Bush, The
Z:fiddlecase
S:https://thesession.org/tunes/1566#setting1566
R:reel
M:4/4
L:1/8
K:Dmix
A2FA DAFG|ABde fded|cGG2 EGG2|cedc AGFG|
A2FA DAFG|ABde fded|cGG2 cedc|AcGE D2FG:|
|:Add^c defg|adde dcAc|GccB cdeg|aged cAGc|
Add^c defg |adde dcAB|cGG2 cedc|AcGE D2FG:|

